assets/images/sponsors-logos/highrise.svg

<svg xmlns="http://www.w3.org/2000/svg" preserveAspectRatio="xMinYMin" viewBox="5 6 788 244" width="114pt">
  <path d="M401.252 191.907v-42.486h-41.495v42.486H340.92V94.189h18.837v38.521h41.495V94.189h18.837v97.718zm37.744-79.874c-5.664 0-10.198-3.966-10.198-9.631 0-5.807 4.533-9.913 10.198-9.913 5.52 0 10.054 4.107 10.054 9.913 0 5.665-4.534 9.631-10.054 9.631zm-8.641 79.874v-68.403h16.996v68.403zm89.964-69.394l2.268 13.595-12.463.85c1.272 2.692 1.839 5.807 1.839 8.922 0 14.73-12.602 23.51-27.333 23.51-1.982 0-3.825-.142-5.523-.425-1.698 1.273-2.832 2.548-2.832 3.683 0 2.265 2.123 2.832 12.747 4.389l8.78.851c14.023 1.984 22.8 6.373 22.8 16.855 0 14.725-16.143 22.941-35.972 22.941-18.55 0-32.573-5.665-32.573-16.993 0-6.377 4.389-11.329 12.889-16.146-2.69-2.126-3.967-4.672-3.967-7.363 0-3.825 2.974-7.507 8.642-10.907-8.075-3.825-12.892-10.907-12.892-19.969 0-14.87 12.18-24.217 27.479-24.217 7.787 0 14.441 2.267 19.4 6.373zm-53.532 76.334c0 5.1 6.094 8.78 18.979 8.78 12.18 0 19.117-4.107 19.117-9.206 0-3.679-2.974-5.803-11.468-7.081l-9.205-1.132c-4.675-.567-6.8-.992-10.199-1.697-4.955 3.54-7.224 6.798-7.224 10.336zm17.561-65.853c-7.504 0-11.896 5.806-11.896 13.312 0 7.081 4.534 12.465 11.896 12.465 7.507 0 12.041-5.524 12.041-12.89 0-7.365-4.817-12.887-12.041-12.887zm86.562 58.913v-44.751c0-5.948-2.549-10.057-8.781-10.057-5.38 0-10.623 3.4-15.579 8.64v46.167h-16.993V92.348l16.993-2.691v42.487c5.668-5.241 12.747-10.056 21.81-10.056 12.747 0 19.545 7.789 19.545 20.537v49.282zm44.666-39.228v39.228h-16.997v-68.403h14.449l2.123 13.737c4.529-7.931 11.329-14.586 21.953-15.153l2.69 16.853c-10.624.709-19.404 6.373-24.218 13.738zm40.07-40.646c-5.664 0-10.198-3.966-10.198-9.631 0-5.807 4.533-9.913 10.198-9.913 5.523 0 10.057 4.107 10.057 9.913-.001 5.665-4.534 9.631-10.057 9.631zm-8.638 79.874v-68.403h16.993v68.403zm50.98 1.275c-9.915 0-20.113-3.115-26.625-6.657l2.265-14.161c7.362 4.817 16.426 8.075 24.927 8.075 7.362 0 11.329-2.694 11.329-7.083 0-4.817-2.974-6.799-13.881-9.49-16.568-4.25-23.509-9.064-23.509-21.527 0-11.755 9.348-20.111 25.21-20.111 8.922 0 17.135 1.7 23.934 4.815l-2.265 14.163c-6.799-3.825-14.87-6.232-21.669-6.232-6.373 0-9.489 2.407-9.489 6.232 0 3.682 2.548 5.664 12.747 8.355 17.702 4.531 24.643 9.346 24.643 22.234 0 13.458-9.631 21.387-27.617 21.387zm94.028-32.15h-43.905c.851 13.313 7.93 19.124 18.412 19.124 8.78 0 16.004-3.258 23.508-8.5l1.985 13.313c-7.366 5.098-16.288 8.355-27.334 8.355-19.12 0-33.423-10.906-33.423-35.546 0-22.236 13.31-35.69 31.154-35.69 20.538 0 29.744 15.437 29.744 34.84.001 1.414-.141 3.114-.141 4.104zm-30.023-27.191c-6.799 0-12.322 5.383-13.597 16.57h27.192c-1.136-10.62-5.382-16.57-13.595-16.57z"/>
  <path d="M152.002 6C73.128 6 11.344 106.263 5.5 190.951 30.241 233.86 89.926 250 152.002 250c62.069 0 121.757-16.14 146.498-59.049C292.653 106.263 230.868 6 152.002 6z" fill="#abdeff"/>
  <path d="M278.904 181.193c-12.509 30.439-56.756 47.477-126.9 49.201-70.151-1.724-115.635-19.644-126.672-50.083 0-15.221 54.437-41.602 126.673-42.883 72.227 1.283 126.899 29.043 126.899 43.765z" fill="#15c66c"/>
  <path d="M236.197 91.052l-29.927-7.353-27.965 6.544v93.933l27.528 9.215 30.29-13.041z" fill="#a8a382"/>
  <path d="M178.305 184.176l27.528 9.215.205-96.987h-1.061l-26.672-6.161z" fill="#cac59d"/>
  <path d="M236.197 91.052l-29.927 7.35-27.965-8.159 27.965-6.544z" fill="#f8f3c9"/>
  <path d="M127.648 132.967l-29.924-27.104-29.921 11.707.004 62.392 29.685 14.241 30.156-9.218z" fill="#a8a382"/>
  <path d="M67.807 179.962l29.685 14.241v-72.442l-1.057-15.393-28.632-5.355z" fill="#cac59d"/>
  <path d="M127.648 116.409l-29.924 11.71-29.921-27.106 29.921-11.707z" fill="#f8f3c9"/>
  <path d="M187.594 62.493l-35.596-9.357-35.595 9.357-8.695 136.421 43.946 15.754 44.469-16.878z" fill="#5d98b0"/>
  <path d="M107.708 198.914l43.946 15.754.067-160.943h-1.26l-34.058 8.768z" fill="#87c6de"/>
  <path d="M187.594 62.493l-35.596 9.362-35.595-9.362 35.595-9.357z" fill="#def4ff"/>
  <path d="M142.036 31.791c0-.392.331-.702.734-.702.41 0 .737.31.737.702l.004 17.701c.526.257.885.781.885 1.386v14.154c0 .857-.727 1.553-1.626 1.553-.899 0-1.62-.696-1.62-1.553V50.878c0-.608.36-1.134.889-1.39zM159.901 24.544c0-.392.331-.702.734-.702.41 0 .737.31.737.702l.004 17.701c.526.257.885.781.885 1.386v14.154c0 .857-.727 1.553-1.626 1.553-.899 0-1.62-.696-1.62-1.553V43.63c0-.608.36-1.134.889-1.39z" fill="#5d98b0"/>
</svg>

<?xml version="1.0" encoding="UTF-8" standalone="no"?>
<!DOCTYPE svg PUBLIC "-//W3C//DTD SVG 1.1//EN" "http://www.w3.org/Graphics/SVG/1.1/DTD/svg11.dtd">
<svg xmlns="http://www.w3.org/2000/svg" xmlns:xl="http://www.w3.org/1999/xlink" version="1.1" preserveAspectRatio="xMinYMin" viewBox="5 6 788 244" width="788pt" height="244pt" xmlns:dc="http://purl.org/dc/elements/1.1/">
  <metadata> Produced by OmniGraffle 7.5 
    <dc:date>2017-12-02 20:21:28 +0000</dc:date>
  </metadata>
  <defs/>
  <g>
    <title>Canvas 1</title>
    <g>
      <title>Layer 1</title>
      <path d="M 401.252 191.907 L 401.252 149.421 L 359.757 149.421 L 359.757 191.907 L 340.92 191.907 L 340.92 94.189 L 359.757 94.189 L 359.757 132.71 L 401.252 132.71 L 401.252 94.189 L 420.089 94.189 L 420.089 191.907 Z M 438.996 112.033 C 433.332 112.033 428.798 108.067 428.798 102.402 C 428.798 96.595 433.331 92.489 438.996 92.489 C 444.516 92.489 449.05 96.596 449.05 102.402 C 449.05 108.067 444.516 112.033 438.996 112.033 Z M 430.355 191.907 L 430.355 123.504 L 447.351 123.504 L 447.351 191.907 Z M 520.319 122.513 L 522.587 136.108 L 510.124 136.958 C 511.396 139.65 511.963 142.765 511.963 145.88 C 511.963 160.61 499.361 169.39 484.63 169.39 C 482.648 169.39 480.805 169.248 479.107 168.965 C 477.409 170.238 476.275 171.513 476.275 172.648 C 476.275 174.913 478.398 175.48 489.022 177.037 L 497.802 177.888 C 511.825 179.872 520.602 184.261 520.602 194.743 C 520.602 209.468 504.459 217.684 484.63 217.684 C 466.08 217.684 452.057 212.019 452.057 200.691 C 452.057 194.314 456.446 189.362 464.946 184.545 C 462.256 182.419 460.979 179.873 460.979 177.182 C 460.979 173.357 463.953 169.675 469.621 166.275 C 461.546 162.45 456.729 155.368 456.729 146.306 C 456.729 131.436 468.909 122.089 484.208 122.089 C 491.995 122.089 498.649 124.356 503.608 128.462 Z M 466.787 198.847 C 466.787 203.947 472.881 207.627 485.766 207.627 C 497.946 207.627 504.883 203.52 504.883 198.421 C 504.883 194.742 501.909 192.618 493.415 191.34 L 484.21 190.208 C 479.535 189.641 477.41 189.216 474.011 188.511 C 469.056 192.051 466.787 195.309 466.787 198.847 Z M 484.348 132.994 C 476.844 132.994 472.452 138.8 472.452 146.306 C 472.452 153.387 476.986 158.771 484.348 158.771 C 491.855 158.771 496.389 153.247 496.389 145.881 C 496.389 138.516 491.572 132.994 484.348 132.994 Z M 570.91 191.907 L 570.91 147.156 C 570.91 141.208 568.361 137.099 562.129 137.099 C 556.749 137.099 551.506 140.499 546.55 145.739 L 546.55 191.906 L 529.557 191.906 L 529.557 92.348 L 546.55 89.657 L 546.55 132.144 C 552.218 126.903 559.297 122.088 568.36 122.088 C 581.107 122.088 587.905 129.877 587.905 142.625 L 587.905 191.907 Z M 615.576 152.679 L 615.576 191.907 L 598.579 191.907 L 598.579 123.504 L 613.028 123.504 L 615.151 137.241 C 619.68 129.31 626.48 122.655 637.104 122.088 L 639.794 138.941 C 629.17 139.65 620.39 145.314 615.576 152.679 Z M 655.646 112.033 C 649.982 112.033 645.448 108.067 645.448 102.402 C 645.448 96.595 649.981 92.489 655.646 92.489 C 661.169 92.489 665.703 96.596 665.703 102.402 C 665.702 108.067 661.169 112.033 655.646 112.033 Z M 647.008 191.907 L 647.008 123.504 L 664.001 123.504 L 664.001 191.907 Z M 697.988 193.182 C 688.073 193.182 677.875 190.067 671.363 186.525 L 673.628 172.364 C 680.99 177.181 690.054 180.439 698.555 180.439 C 705.917 180.439 709.884 177.745 709.884 173.356 C 709.884 168.539 706.91 166.557 696.003 163.866 C 679.435 159.616 672.494 154.802 672.494 142.339 C 672.494 130.584 681.842 122.228 697.704 122.228 C 706.626 122.228 714.839 123.928 721.638 127.043 L 719.373 141.206 C 712.574 137.381 704.503 134.974 697.704 134.974 C 691.331 134.974 688.215 137.381 688.215 141.206 C 688.215 144.888 690.763 146.87 700.962 149.561 C 718.664 154.092 725.605 158.907 725.605 171.795 C 725.605 185.253 715.974 193.182 697.988 193.182 Z M 792.016 161.032 L 748.111 161.032 C 748.962 174.345 756.041 180.156 766.523 180.156 C 775.303 180.156 782.527 176.898 790.031 171.656 L 792.016 184.969 C 784.65 190.067 775.728 193.324 764.682 193.324 C 745.562 193.324 731.259 182.418 731.259 157.778 C 731.259 135.542 744.569 122.088 762.413 122.088 C 782.951 122.088 792.157 137.525 792.157 156.928 C 792.158 158.342 792.016 160.042 792.016 161.032 Z M 761.993 133.841 C 755.194 133.841 749.671 139.224 748.396 150.411 L 775.588 150.411 C 774.452 139.791 770.206 133.841 761.993 133.841 Z" fill="black"/>
      <path d="M 152.002 6 C 73.128 6 11.344 106.263 5.5 190.951 C 30.241 233.86 89.926 250 152.002 250 C 214.071 250 273.759 233.86 298.5 190.951 C 292.653 106.263 230.868 6 152.002 6 Z" fill="#abdeff"/>
      <path d="M 278.904 181.193 C 266.395 211.632 222.148 228.67 152.004 230.394 C 81.853 228.67 36.369 210.75 25.332 180.311 C 25.332 165.09 79.769 138.709 152.005 137.428 C 224.232 138.711 278.904 166.471 278.904 181.193 Z" fill="#15c66c"/>
      <path d="M 236.197 91.052 L 206.27 83.699 L 178.305 90.243 L 178.305 184.176 L 205.833 193.391 L 236.123 180.35 Z" fill="#a8a382"/>
      <path d="M 178.305 184.176 L 205.833 193.391 L 206.038 96.404 L 204.977 96.404 L 178.305 90.243 Z" fill="#cac59d"/>
      <path d="M 236.197 91.052 L 206.27 98.402 L 178.305 90.243 L 206.27 83.699 Z" fill="#f8f3c9"/>
      <path d="M 127.648 132.967 L 97.724 105.863 L 67.803 117.57 L 67.807 179.962 L 97.492 194.203 L 127.648 184.985 Z" fill="#a8a382"/>
      <path d="M 67.807 179.962 L 97.492 194.203 L 97.492 121.761 L 96.435 106.368 L 67.803 101.013 Z" fill="#cac59d"/>
      <path d="M 127.648 116.409 L 97.724 128.119 L 67.803 101.013 L 97.724 89.306 Z" fill="#f8f3c9"/>
      <path d="M 187.594 62.493 L 151.998 53.136 L 116.403 62.493 L 107.708 198.914 L 151.654 214.668 L 196.123 197.79 Z" fill="#5d98b0"/>
      <path d="M 107.708 198.914 L 151.654 214.668 L 151.721 53.725 L 150.461 53.725 L 116.403 62.493 Z" fill="#87c6de"/>
      <path d="M 187.594 62.493 L 151.998 71.855 L 116.403 62.493 L 151.998 53.136 Z" fill="#def4ff"/>
      <path d="M 142.036 31.791 C 142.036 31.399 142.367 31.089 142.77 31.089 C 143.18 31.089 143.507 31.399 143.507 31.791 L 143.511 49.492 C 144.037 49.749 144.396 50.273 144.396 50.878 L 144.396 65.032 C 144.396 65.889 143.669 66.585 142.77 66.585 C 141.871 66.585 141.15 65.889 141.15 65.032 L 141.15 50.878 C 141.15 50.27 141.51 49.744 142.039 49.488 Z" fill="#5d98b0"/>
      <path d="M 159.901 24.544 C 159.901 24.152 160.232 23.842 160.635 23.842 C 161.045 23.842 161.372 24.152 161.372 24.544 L 161.376 42.245 C 161.902 42.502 162.261 43.026 162.261 43.631 L 162.261 57.785 C 162.261 58.642 161.534 59.338 160.635 59.338 C 159.736 59.338 159.015 58.642 159.015 57.785 L 159.015 43.63 C 159.015 43.022 159.375 42.496 159.904 42.24 Z" fill="#5d98b0"/>
    </g>
  </g>
</svg>
